images/client3.svg

<svg width="170" height="90" fill="none" xmlns="http://www.w3.org/2000/svg"><rect x=".5" y=".5" width="169" height="89" rx="3.5" stroke="#AFB1B8"/><path d="M71.3454 65.7946a.118.118 0 01.0435.0095.1123.1123 0 01.0362.0248l.2058.2157a1.684 1.684 0 01-.5787.4093 2.0743 2.0743 0 01-.8205.147 2.0112 2.0112 0 01-.7717-.1372 1.673 1.673 0 01-.5813-.3873 1.7463 1.7463 0 01-.3755-.598 2.1632 2.1632 0 01-.1312-.7671 2.0183 2.0183 0 01.1415-.7696 1.7859 1.7859 0 01.3987-.5981 1.8348 1.8348 0 01.6173-.3897 2.2283 2.2283 0 01.7948-.1372 1.9684 1.9684 0 01.7382.125c.2037.0842.3907.2011.553.3456l-.1723.2304a.1752.1752 0 01-.0438.0416.1091.1091 0 01-.0694.0172.1569.1569 0 01-.0746-.0245l-.0926-.0613-.1286-.0784a1.401 1.401 0 00-.1723-.076 1.6784 1.6784 0 00-.2341-.0613 1.6435 1.6435 0 00-.3061-.0245 1.5322 1.5322 0 00-.571.1029 1.2907 1.2907 0 00-.4476.2893 1.342 1.342 0 00-.2906.4607 1.6811 1.6811 0 00-.1055.6079 1.7163 1.7163 0 00.1055.6176c.0627.1691.1598.3248.2855.4583.1178.1245.2638.2217.427.2843.1679.0664.3481.0997.5298.0981.105.0015.21-.005.3138-.0196a1.1673 1.1673 0 00.4759-.1642 1.5694 1.5694 0 00.2032-.152.1529.1529 0 01.0977-.0392zM77.2871 64.7108a2.0289 2.0289 0 01-.1389.7622 1.6555 1.6555 0 01-.3874.5918 1.7535 1.7535 0 01-.608.3885 2.2958 2.2958 0 01-1.5638 0 1.7775 1.7775 0 01-.6045-.3897 1.7405 1.7405 0 01-.3909-.5979 2.1665 2.1665 0 010-1.5269 1.8015 1.8015 0 01.3909-.6004 1.7796 1.7796 0 01.6045-.3749 2.2576 2.2576 0 011.5638 0c.2285.0884.4352.2211.607.3896a1.757 1.757 0 01.3884.5906c.0953.2455.1424.5055.1389.7671zm-.5401 0a1.7586 1.7586 0 00-.0978-.6127 1.2767 1.2767 0 00-.2752-.4582 1.2078 1.2078 0 00-.4347-.2892 1.6579 1.6579 0 00-1.1369 0 1.2074 1.2074 0 00-.4346.2892 1.2475 1.2475 0 00-.2778.4582 1.961 1.961 0 000 1.2254c.058.1696.1527.3257.2778.4583.1207.1252.2692.2231.4346.2867a1.6985 1.6985 0 001.1369 0 1.2022 1.2022 0 00.4347-.2867 1.2973 1.2973 0 00.2752-.4583 1.744 1.744 0 00.0978-.6127zM81.3408 65.3532l.054.1372c.0206-.049.0386-.0931.0591-.1372a1.3197 1.3197 0 01.0669-.1348l1.3144-2.2764c.0257-.0392.0488-.0637.0746-.0711a.3224.3224 0 01.108-.0122h.3884v3.7026h-.4604v-2.7225-.1151a1.0847 1.0847 0 010-.1275l-1.3221 2.3084a.2024.2024 0 01-.0774.0842.2157.2157 0 01-.1129.0309h-.0746a.2123.2123 0 01-.1132-.0305.2004.2004 0 01-.0772-.0846l-1.3606-2.3231v2.9724h-.445v-3.6952h.3884a.3224.3224 0 01.108.0122.1507.1507 0 01.072.0711l1.3427 2.2789a.8049.8049 0 01.0669.1323zM86.2871 65.1692v1.387h-.5144v-3.6977h1.1472a2.2484 2.2484 0 01.6404.0809 1.226 1.226 0 01.4527.2303.9476.9476 0 01.2573.3627c.0607.1508.0904.3114.0874.4729a1.1448 1.1448 0 01-.0952.4729 1.0109 1.0109 0 01-.2778.37 1.2704 1.2704 0 01-.4552.2451 1.995 1.995 0 01-.6199.0857l-.6225-.0098zm0-.3969h.6225a1.3233 1.3233 0 00.3987-.0564.843.843 0 00.2881-.1593.6522.6522 0 00.1749-.245.7676.7676 0 00.0617-.3112.6774.6774 0 00-.0516-.3012.7084.7084 0 00-.1799-.2526c-.1965-.1462-.4433-.217-.6919-.1985h-.6225v1.5242zM93.201 66.5612h-.4064a.1813.1813 0 01-.1132-.0344.226.226 0 01-.0669-.0857l-.3498-.8945H90.508l-.3627.8945a.1991.1991 0 01-.0643.0833.1811.1811 0 01-.1158.0368h-.4064l1.5433-3.703h.535l1.5639 3.703zm-2.5464-1.3749h1.4507l-.6122-1.5072a2.6 2.6 0 01-.1158-.348l-.0591.1936a1.8403 1.8403 0 01-.0566.1569l-.607 1.5047zM95.4233 62.8754a.2227.2227 0 01.0772.0662l2.2506 2.7913v-.1299V62.8582h.4604v3.703h-.2572a.2302.2302 0 01-.1054-.0221.2829.2829 0 01-.0823-.0686l-2.2481-2.7888a1.083 1.083 0 010 .1274v2.7521h-.4604v-3.703h.2727a.2248.2248 0 01.0925.0172zM102.003 65.0884v1.4704h-.515v-1.4704l-1.422-2.23h.46c.04-.0023.079.009.111.0318.028.0238.051.052.069.0833l.89 1.4386c.036.0612.067.1176.093.1715.026.0539.046.1054.064.1569l.067-.1593a1.234 1.234 0 01.088-.1691l.877-1.4484a.3618.3618 0 01.067-.0784.1597.1597 0 01.11-.0367h.466l-1.425 2.2398zM81.0862 56.6443c.2238.0269.4501.049.679.0686 3.4706-1.4792 6.4066-3.9002 8.441-6.9603 2.0344-3.0602 3.077-6.6237 2.9974-10.2453l-3.8248-3.644c.7777 3.8558.4139 7.8417-1.0506 11.5118-1.4646 3.6701-3.9721 6.8795-7.242 9.2692z" fill="#AFB1B8"/><path d="M79.7205 56.4748l.1028.0196c3.4943-2.3812 6.1583-5.7064 7.6477-9.5456 1.4894-3.8391 1.7355-8.0157.7067-11.9896l-5.4478-5.1902c2.2034 4.2663 3.0904 9.0408 2.5577 13.7684-.5328 4.7276-2.4633 9.214-5.5671 12.9374zM98.1962 43.7861c-.9256 3.9793-3.1734 7.568-6.4098 10.2335a20.218 20.218 0 01-3.0454 2.0829c2.6353-.7379 5.0576-2.0427 7.08-3.8135 2.0224-1.7709 3.5909-3.9606 4.585-6.4003l-2.2098-2.1026z" fill="#AFB1B8"/><path d="M97.3292 43.2002l-3.1457-2.9971c-.0602 3.417-1.0798 6.7563-2.9529 9.6708-1.8731 2.9146-4.5313 5.2979-7.6984 6.9025h.0155a18.7608 18.7608 0 002.1117-.1201c2.9598-1.151 5.5745-2.9821 7.6108-5.3301 2.0362-2.348 3.4307-5.1397 4.059-8.126zM80.1757 27.5803L76.4229 24c-3.3548 1.2351-6.2401 3.4064-8.2783 6.2297-2.0381 2.8233-3.1341 6.1671-3.1446 9.5937.0126 3.7863 1.3502 7.4604 3.8012 10.4409 2.4509 2.9805 5.8752 5.0971 9.7309 6.0148 3.4419-3.9953 5.4571-8.9321 5.7526-14.0931.2956-5.161-1.1438-10.2774-4.109-14.6057zM106 42.649c-.014-4.4922-1.893-8.7968-5.227-11.9733-3.3339-3.1765-7.852-4.9667-12.5671-4.9796-2.1788-.0022-4.3391.3809-6.3712 1.1297l22.9773 21.8908c.786-1.9351 1.189-3.9925 1.188-6.0676z" fill="#AFB1B8"/></svg>

<svg width="170" height="90" viewBox="0 0 170 90" fill="none" xmlns="http://www.w3.org/2000/svg">
<rect x="0.5" y="0.5" width="169" height="89" rx="3.5" stroke="#AFB1B8"/>
<path d="M71.3454 65.7946C71.3604 65.795 71.3752 65.7982 71.3889 65.8041C71.4026 65.81 71.4149 65.8184 71.4251 65.8289L71.6309 66.0446C71.4712 66.2191 71.2738 66.3588 71.0522 66.4539C70.7927 66.5577 70.513 66.6078 70.2317 66.6009C69.9673 66.6061 69.7046 66.5594 69.46 66.4637C69.2394 66.3758 69.0412 66.2437 68.8787 66.0764C68.713 65.9029 68.5853 65.6996 68.5032 65.4784C68.4133 65.2318 68.3689 64.9723 68.372 64.7113C68.3684 64.4486 68.4164 64.1875 68.5135 63.9417C68.6033 63.7191 68.7389 63.5158 68.9122 63.3436C69.0878 63.1749 69.2979 63.0423 69.5295 62.9539C69.7828 62.8604 70.0526 62.8138 70.3243 62.8167C70.5766 62.8108 70.8277 62.8534 71.0625 62.9417C71.2662 63.0259 71.4532 63.1428 71.6155 63.2873L71.4432 63.5177C71.4312 63.5339 71.4164 63.548 71.3994 63.5593C71.3791 63.5726 71.3545 63.5787 71.33 63.5765C71.3033 63.5747 71.2775 63.5663 71.2554 63.552L71.1628 63.4907L71.0342 63.4123C70.9787 63.3832 70.9211 63.3578 70.8619 63.3363C70.7856 63.3103 70.7073 63.2898 70.6278 63.275C70.5268 63.2573 70.4243 63.2491 70.3217 63.2505C70.1261 63.2482 69.9319 63.2832 69.7507 63.3534C69.5817 63.4185 69.4291 63.5171 69.3031 63.6427C69.1749 63.7762 69.076 63.9329 69.0125 64.1034C68.94 64.2985 68.9043 64.5043 68.907 64.7113C68.9039 64.9214 68.9396 65.1305 69.0125 65.3289C69.0752 65.498 69.1723 65.6537 69.298 65.7872C69.4158 65.9117 69.5618 66.0089 69.725 66.0715C69.8929 66.1379 70.0731 66.1712 70.2548 66.1696C70.3598 66.1711 70.4648 66.1646 70.5686 66.15C70.7382 66.1302 70.9009 66.0741 71.0445 65.9858C71.1165 65.9405 71.1844 65.8897 71.2477 65.8338C71.2741 65.8098 71.3089 65.7958 71.3454 65.7946Z" fill="#AFB1B8"/>
<path d="M77.2871 64.7108C77.2903 64.9709 77.2432 65.2292 77.1482 65.473C77.0644 65.6941 76.9323 65.8958 76.7608 66.0648C76.5892 66.2338 76.382 66.3662 76.1528 66.4533C75.6492 66.6363 75.0925 66.6363 74.589 66.4533C74.3613 66.3648 74.1554 66.2321 73.9845 66.0636C73.8131 65.8916 73.68 65.6882 73.5936 65.4657C73.4083 64.972 73.4083 64.4325 73.5936 63.9388C73.6813 63.7162 73.8141 63.5122 73.9845 63.3384C74.1568 63.1752 74.3626 63.0476 74.589 62.9635C75.0919 62.7772 75.6499 62.7772 76.1528 62.9635C76.3813 63.0519 76.588 63.1846 76.7598 63.3531C76.9292 63.5235 77.0612 63.7243 77.1482 63.9437C77.2435 64.1892 77.2906 64.4492 77.2871 64.7108ZM76.747 64.7108C76.751 64.5028 76.718 64.2956 76.6492 64.0981C76.5916 63.929 76.4979 63.7729 76.374 63.6399C76.2534 63.5139 76.1049 63.4152 75.9393 63.3507C75.5734 63.2167 75.1684 63.2167 74.8024 63.3507C74.6368 63.4152 74.4884 63.5139 74.3678 63.6399C74.2422 63.7722 74.1475 63.9284 74.09 64.0981C73.9591 64.4971 73.9591 64.9246 74.09 65.3235C74.148 65.4931 74.2427 65.6492 74.3678 65.7818C74.4885 65.907 74.637 66.0049 74.8024 66.0685C75.169 66.1991 75.5728 66.1991 75.9393 66.0685C76.1048 66.0049 76.2533 65.907 76.374 65.7818C76.4974 65.6484 76.591 65.4925 76.6492 65.3235C76.7183 65.1261 76.7513 64.9189 76.747 64.7108Z" fill="#AFB1B8"/>
<path d="M81.3408 65.3532L81.3948 65.4904C81.4154 65.4414 81.4334 65.3973 81.4539 65.3532C81.4736 65.3071 81.4959 65.2621 81.5208 65.2184L82.8352 62.942C82.8609 62.9028 82.884 62.8783 82.9098 62.8709C82.9447 62.8608 82.9813 62.8566 83.0178 62.8587H83.4062V66.5613H82.9458V63.8388C82.9458 63.8045 82.9458 63.7653 82.9458 63.7237C82.9433 63.6812 82.9433 63.6387 82.9458 63.5962L81.6237 65.9046C81.6069 65.9391 81.58 65.9684 81.5463 65.9888C81.5125 66.0092 81.4733 66.02 81.4334 66.0197H81.3588C81.3187 66.0203 81.2794 66.0097 81.2456 65.9892C81.2118 65.9687 81.185 65.9393 81.1684 65.9046L79.8078 63.5815C79.8078 63.6256 79.8078 63.6698 79.8078 63.7139C79.8078 63.758 79.8078 63.7972 79.8078 63.8315V66.5539H79.3628V62.8587H79.7512C79.7877 62.8566 79.8243 62.8608 79.8592 62.8709C79.8911 62.886 79.9165 62.9111 79.9312 62.942L81.2739 65.2209C81.3003 65.263 81.3227 65.3073 81.3408 65.3532Z" fill="#AFB1B8"/>
<path d="M86.2871 65.1692V66.5562H85.7727V62.8585H86.9199C87.1364 62.8546 87.3524 62.8818 87.5603 62.9394C87.7268 62.9843 87.8812 63.0629 88.013 63.1697C88.1273 63.2699 88.2154 63.394 88.2703 63.5324C88.331 63.6832 88.3607 63.8438 88.3577 64.0053C88.36 64.1675 88.3276 64.3284 88.2625 64.4782C88.2007 64.6201 88.1057 64.7466 87.9847 64.8482C87.8528 64.9595 87.6976 65.043 87.5295 65.0933C87.3292 65.1542 87.1198 65.1832 86.9096 65.179L86.2871 65.1692ZM86.2871 64.7723H86.9096C87.0448 64.7739 87.1794 64.7549 87.3083 64.7159C87.4146 64.6818 87.5126 64.6277 87.5964 64.5566C87.6736 64.4888 87.7335 64.405 87.7713 64.3116C87.8134 64.2128 87.8344 64.107 87.833 64.0004C87.839 63.8976 87.8214 63.7948 87.7814 63.6992C87.7414 63.6035 87.68 63.5174 87.6015 63.4466C87.405 63.3004 87.1582 63.2296 86.9096 63.2481H86.2871V64.7723Z" fill="#AFB1B8"/>
<path d="M93.201 66.5612H92.7946C92.7538 66.5626 92.7138 66.5505 92.6814 66.5268C92.6522 66.5038 92.6293 66.4744 92.6145 66.4411L92.2647 65.5466H90.508L90.1453 66.4411C90.132 66.4738 90.1098 66.5025 90.081 66.5244C90.0483 66.5495 90.0072 66.5625 89.9652 66.5612H89.5588L91.1021 62.8582H91.6371L93.201 66.5612ZM90.6546 65.1863H92.1053L91.4931 63.6791C91.4463 63.5658 91.4076 63.4495 91.3773 63.3311L91.3182 63.5247C91.3002 63.5836 91.2796 63.6375 91.2616 63.6816L90.6546 65.1863Z" fill="#AFB1B8"/>
<path d="M95.4233 62.8754C95.4541 62.8915 95.4805 62.9141 95.5005 62.9416L97.7511 65.7329C97.7511 65.6887 97.7511 65.6446 97.7511 65.603C97.7511 65.5613 97.7511 65.5197 97.7511 65.4804V62.8582H98.2115V66.5612H97.9543C97.9178 66.5622 97.8816 66.5547 97.8489 66.5391C97.8171 66.5215 97.7892 66.4982 97.7666 66.4705L95.5185 63.6817C95.521 63.7241 95.521 63.7666 95.5185 63.8091C95.5185 63.8508 95.5185 63.8875 95.5185 63.9218V66.5612H95.0581V62.8582H95.3308C95.3626 62.8574 95.3942 62.8632 95.4233 62.8754Z" fill="#AFB1B8"/>
<path d="M102.003 65.0884V66.5588H101.488V65.0884L100.066 62.8584H100.526C100.566 62.8561 100.605 62.8674 100.637 62.8902C100.665 62.914 100.688 62.9422 100.706 62.9735L101.596 64.4121C101.632 64.4733 101.663 64.5297 101.689 64.5836C101.715 64.6375 101.735 64.689 101.753 64.7405L101.82 64.5812C101.845 64.5229 101.874 64.4664 101.908 64.4121L102.785 62.9637C102.803 62.9348 102.826 62.9084 102.852 62.8853C102.882 62.8599 102.922 62.8467 102.962 62.8486H103.428L102.003 65.0884Z" fill="#AFB1B8"/>
<path d="M81.0862 56.6443C81.31 56.6712 81.5363 56.6933 81.7652 56.7129C85.2358 55.2337 88.1718 52.8127 90.2062 49.7526C92.2406 46.6924 93.2832 43.1289 93.2036 39.5073L89.3788 35.8633C90.1565 39.7191 89.7927 43.705 88.3282 47.3751C86.8636 51.0452 84.3561 54.2546 81.0862 56.6443Z" fill="#AFB1B8"/>
<path d="M79.7205 56.4748L79.8233 56.4944C83.3176 54.1132 85.9816 50.788 87.471 46.9488C88.9604 43.1097 89.2065 38.9331 88.1777 34.9592L82.7299 29.769C84.9333 34.0353 85.8203 38.8098 85.2876 43.5374C84.7548 48.265 82.8243 52.7514 79.7205 56.4748Z" fill="#AFB1B8"/>
<path d="M98.1962 43.7861C97.2706 47.7654 95.0228 51.3541 91.7864 54.0196C90.8412 54.8023 89.8217 55.4996 88.741 56.1025C91.3763 55.3646 93.7986 54.0598 95.821 52.289C97.8434 50.5181 99.4119 48.3284 100.406 45.8887L98.1962 43.7861Z" fill="#AFB1B8"/>
<path d="M97.3292 43.2002L94.1835 40.2031C94.1233 43.6201 93.1037 46.9594 91.2306 49.8739C89.3575 52.7885 86.6993 55.1718 83.5322 56.7764H83.5477C84.2534 56.7761 84.9586 56.736 85.6594 56.6563C88.6192 55.5053 91.2339 53.6742 93.2702 51.3262C95.3064 48.9782 96.7009 46.1865 97.3292 43.2002Z" fill="#AFB1B8"/>
<path d="M80.1757 27.5803L76.4229 24C73.0681 25.2351 70.1828 27.4064 68.1446 30.2297C66.1065 33.053 65.0105 36.3968 65 39.8234V39.8234C65.0126 43.6097 66.3502 47.2838 68.8012 50.2643C71.2521 53.2448 74.6764 55.3614 78.5321 56.2791C81.974 52.2838 83.9892 47.347 84.2847 42.186C84.5803 37.025 83.1409 31.9086 80.1757 27.5803Z" fill="#AFB1B8"/>
<path d="M106 42.649C105.986 38.1568 104.107 33.8522 100.773 30.6757C97.4391 27.4992 92.921 25.709 88.2059 25.6961C86.0271 25.6939 83.8668 26.077 81.8347 26.8258L104.812 48.7166C105.598 46.7815 106.001 44.7241 106 42.649Z" fill="#AFB1B8"/>
</svg>
